X:98
T:Lady Lisa's Treasure Map
R:double jig
C: 2000, 2010 L.E. McCullough  
M:6/8
L:1/8
K:D
z3 z2 A|:D (3AAA BAF|DFA d2e|~f3 gfe|edA (3Bcd A|
D (3AAA BAF|DFA d2e|~f3 gfe|edc d2A:|
|:~B3 DFA|~d3 FAd|~e3 ~g3|~f3 edA|
~B3 DFA|~d3 FAd|eAe fAf|1 edB ~A3:|2 gba gfe|]


